icons/restaurant-fill.svg

<svg xmlns="http://www.w3.org/2000/svg" width="24" height="24" fill="none"><g clip-path="url(#a)"><g><path fill="#121212" d="M21 2V22H19V14H16V7C16 5.67392 16.5268 4.40215 17.4645 3.46447C18.4021 2.52678 19.6739 2 21 2ZM9 13.9V22H7V13.9C5.87081 13.6691 4.85599 13.0554 4.12714 12.1625C3.3983 11.2697 3.00014 10.1526 3 9V3H5V10H7V3H9V10H11V3H13V9C12.9999 10.1526 12.6017 11.2697 11.8729 12.1625C11.144 13.0554 10.1292 13.6691 9 13.9Z"/></g></g><defs><clipPath id="a"><rect width="24" height="24" fill="white"/></clipPath></defs></svg>

<svg width="24" height="24" fill="none" xmlns="http://www.w3.org/2000/svg"><g clip-path="url(#a)"><path d="M21 2v20h-2v-8h-3V7a5 5 0 0 1 5-5ZM9 13.9V22H7v-8.1A5.002 5.002 0 0 1 3 9V3h2v7h2V3h2v7h2V3h2v6a5.002 5.002 0 0 1-4 4.9Z" /></g><defs><clipPath id="a"><path fill="#fff" d="M0 0h24v24H0z"/></clipPath></defs></svg>
